src/assets/img/open-hands.svg

<svg width="150" height="150" fill="none" xmlns="http://www.w3.org/2000/svg"><path fill-rule="evenodd" clip-rule="evenodd" d="M75.328 132.656c31.369 0 56.953-25.584 56.953-56.953 0-31.369-25.584-56.953-56.953-56.953-31.369 0-56.953 25.584-56.953 56.953 0 31.369 25.584 56.953 56.953 56.953z" fill="#fff"/><path fill-rule="evenodd" clip-rule="evenodd" d="M103.095 108.753c3.465-.675 6.9-1.395 10.155-2.385 8.452-1.6 7.982 5.61 4.392 7.023-7.23 2.846-12.807 7.185-17.833 11.99l3.286-16.628z" fill="#90D3FF"/><path fill-rule="evenodd" clip-rule="evenodd" d="M97.164 109.593l7.531-1.673c4.502 5.071 5.767 8.444 4.897 11.009-3.127 2.016-6.315 4.801-8.959 7.392l-5.25-10.786 1.781-5.942z" fill="#FFB640"/><path fill-rule="evenodd" clip-rule="evenodd" d="M101.279 108.79l2.29-.76c3.782 4.85 5.405 8.948 4.9 12.065l-2.025 1.38c.607-3.764-1.188-8.048-5.165-12.685z" fill="#FFE1A5"/><path fill-rule="evenodd" clip-rule="evenodd" d="M89.139 49.815c-2.242-22.422-28.645-30.502-47.915-29.294-12.977.813-16.987 8.32.14 22.984l18.442 16.001 29.333-9.69z" fill="#C7E9FF"/><path fill-rule="evenodd" clip-rule="evenodd" d="M78.376 43.874c-12.406.947-21.76 3.404-27.108 4.614C30.532 53.178-1.048 66.72.694 74.136c3.582 15.157 44.963 27.841 60.264-1l17.418-29.262z" fill="#90D3FF"/><path fill-rule="evenodd" clip-rule="evenodd" d="M48.224 62.544c-9.777 9.621-18.121 7.762-25.987 7.974-4.189.113-8.045.61-10.228 1.991-7.029 4.45 4.423 9.816 11 11.5 27.688 7.09 19.45-13.322 25.215-21.465z" fill="#C7E9FF"/><path fill-rule="evenodd" clip-rule="evenodd" d="M96.659 107.831c.567 12.398-7.268 14.881-18.408 6.561l-5.1-3.511c1.004-2.785 1.774-4.587 3.335-6.283l11.034-2.811c.096.048.193.099.29.153 3.42 1.889 6.781 2.618 8.849 5.891z" fill="#90D3FF"/><path fill-rule="evenodd" clip-rule="evenodd" d="M96.389 105.623c3.063 3.038 8.08 10.685 9.353 18.24-8.8 5.569-19.23 8.793-30.414 8.793-1.83 0-3.64-.087-5.425-.255 2.251-9.174.677-14.675-2.872-21.59l6.749.024 17.829 7.421 1.887-4.234 1.59-5.478 1.303-2.921z" fill="#FFB640"/><path fill-rule="evenodd" clip-rule="evenodd" d="M47.445 117.492l2.757-8.378c6.705 1.099 13.584 1.729 20.6 1.995l1.949 14.378-25.306-7.995z" fill="#90D3FF"/><path fill-rule="evenodd" clip-rule="evenodd" d="M74.397 129.37c.232-1.689-1.294-3.068-5.705-4.198l-10.526-3.397c1.317-3.02 1.964-7.376 1.043-11.468l11.95.68c.121-.003 6.762 10.097 3.238 18.383z" fill="#FFB640"/><path fill-rule="evenodd" clip-rule="evenodd" d="M62.562 123.003a25.62 25.62 0 01-2.289-.658c1.296-2.675 1.715-6.915.75-11.692l2.364.044c.94 5.087.75 9.771-.825 12.306z" fill="#FFE1A5"/><path fill-rule="evenodd" clip-rule="evenodd" d="M53.625 109.751c-4.316-.895-5.577-1.144-9.213-2.465l-1.769-1.569c-.5-.5-1.275-.845-2.392-.459-2.108.729-2.615 3.566-.83 4.708.471.215 1.002.82.127 1.733-.621.647-1.343 1.112-1.992 1.743-2.035 1.98-3.27 3.746-1.31 6.141-.493 2.408.888 5.632 4.385 3.529 1.138 1.575 2.982 1.429 4.253.036a8.27 8.27 0 001.287-1.918c1.04-2.173 1.955-3.264 3.377-3.852l2.953-.294 1.124-7.333z" fill="#90D3FF"/><path fill-rule="evenodd" clip-rule="evenodd" d="M41.517 119.394c-.406.712-.653 1.453-.83 3.295-.709-1.662-.287-2.868.233-3.567.467-.628 1.29-.577 1.29-.577s-.38.302-.693.849zM36.496 119.27c.648-1.268.96-1.702 1.917-2.756-1.236.405-2.189 1.471-1.917 2.756z" fill="#0F99F5"/><path fill-rule="evenodd" clip-rule="evenodd" d="M41.67 117.031c1.897 1.218 3.417-1.301 3.045-3.038-.283-1.327-1.273-2.554-2.397-2.25-2.124.575-3.079 3.727-.648 5.288z" fill="#fff"/><path fill-rule="evenodd" clip-rule="evenodd" d="M72.574 109.586c-1.068 7.142 6.294 11.49 8.71 12.41.747-1.927 1.702-4.188 3.587-5.522l7.1 2.465.512-.723c-4.21-1.671-7.47-4.749-10.365-7.89-1.845-.56-7.41-.904-9.544-.74z" fill="#FF9100"/><path fill-rule="evenodd" clip-rule="evenodd" d="M98.368 113.477c1.633.95 2.846 1.646 4.751 3.913-.748-2.977-1.497-7.742-5.827-10.305l-3.238 1.089c.373 4.755-1.495 7.678-3.931 11.428l8.245-6.125z" fill="#FF9100"/><path fill-rule="evenodd" clip-rule="evenodd" d="M44.57 97.9c8.16 11.925 27.732 14.428 41.988 13.744 14.722-.705 27.773-6.751 35.964-19.249 10.859-16.566-5.057-38.715-22.448-45.495-15.73-6.134-32.301-3.63-44.788 4.229-14.978 9.426-22.492 29.56-10.717 46.77z" fill="#90D3FF"/><path fill-rule="evenodd" clip-rule="evenodd" d="M55.52 106.69c9.377 4.404 21.411 5.413 31.038 4.954 14.722-.703 27.712-6.543 36.009-18.971 3.132-4.692 3.646-14.015-.381-16.489-6.573-4.036-13.342-2.254-21.932-.922-7.816 1.212-16.282.691-24.936.51-9.519-.2-19.393 3.338-23.286 5.864-3.893 2.527-5.777 6.74-6.47 8.749-2.258 6.549 4.503 13.743 9.958 16.305z" fill="#C7E9FF"/><path fill-rule="evenodd" clip-rule="evenodd" d="M80.219 69.074c2.084-1.997 5.44-3.215 8.268-3.907 2.828-.692 5.127-.856 7.251-.708 2.125.148 4.075.61 5.51 1.374 1.435.764 2.357 1.83 2.976 3.246.619 1.415.938 3.182.949 4.459.012 1.277-.283 2.063-.836 3.203-.552 1.139-1.364 2.63-3.394 3.745-2.03 1.113-5.278 1.848-8.868 1.82-3.591-.03-7.525-.82-10.176-1.895-2.652-1.075-4.02-2.432-4.3-4.498-.278-2.066.536-4.843 2.62-6.84z" fill="#fff"/><path fill-rule="evenodd" clip-rule="evenodd" d="M78.86 78.517l22.756-3.735c.573-.095 2.308.082 2.873-.38-1.979 3.84-7.202 8.453-6.371 18.99 1.895 6.114-4.599 8.275-8.298 4.66-3.836-3.749-1.044-11.163-10.96-19.535z" fill="#fff"/><path fill-rule="evenodd" clip-rule="evenodd" d="M90.166 67.798c-.415.422-.462.71.07 1.111.53.401 1.638.915 2.62 1.384.982.47 1.837.893 2.437 1.004.6.11.946-.092 1.441-.677.495-.585 1.14-1.551 1.517-2.194.378-.642.49-.96.405-1.258-.086-.297-.37-.572-.955-.802-.585-.23-1.47-.415-2.447-.425-.975-.01-2.04.154-2.964.515-.924.361-1.709.919-2.124 1.342z" fill="#FF8797"/><path fill-rule="evenodd" clip-rule="evenodd" d="M85.18 77.18c.522-1.004 2.358-2.322 1.369-2.62-1.394-.42-3.529.43-3.907 1.926-.126.504-.186 1.655.488 2.152 1.153.848 1.484-.374 2.05-1.459z" fill="#333"/><path fill-rule="evenodd" clip-rule="evenodd" d="M84.978 76.57c4.108.075 11.531.787 16.639-1.788.515-.26 1.77-.99 2.335-1.45-.208 1.24-2.498 3.012-3.613 3.75-2.244 6.686-2.448 10.79-3.142 16.34-.694 5.552-5.82 4.397-7.567.975-2.9-5.678-4.639-17.78-4.651-17.827z" fill="#333"/><path fill-rule="evenodd" clip-rule="evenodd" d="M91.184 77.481c.135 2.622 2.076 3.618 4.629 3.219 2.521-.395 3.843-1.529 4.04-4.39-2.822.786-5.721 1.126-8.67 1.171z" fill="#fff"/><path fill-rule="evenodd" clip-rule="evenodd" d="M95.944 95.462c-2.498 2.544-6.883-.116-7.133-6.235 4.895-1.337 6.515 2.1 7.133 6.235z" fill="#FF8797"/><path fill-rule="evenodd" clip-rule="evenodd" d="M66.67 55.977c-5.951.655-11.314 6.278-11.977 12.557-.664 6.28 3.622 10.839 9.573 10.183 5.951-.656 11.314-6.278 11.978-12.558.664-6.28-3.623-10.838-9.574-10.182z" fill="#fff"/><path fill-rule="evenodd" clip-rule="evenodd" d="M64.562 62.226c-4.562.502-8.204 4.76-8.133 9.51.04 2.655 1.23 4.901 3.068 6.279 1.386.632 3.004.896 4.77.701 2.505-.276 4.907-1.433 6.898-3.15 1.144-1.61 1.816-3.584 1.786-5.65-.071-4.75-3.827-8.194-8.39-7.69z" fill="#333"/><path fill-rule="evenodd" clip-rule="evenodd" d="M104.322 53.919c3.637-.548 8.582 3.079 11.044 8.1 2.462 5.022 1.509 9.538-2.128 10.085-3.638.548-8.582-3.078-11.044-8.1-2.462-5.022-1.51-9.537 2.128-10.085z" fill="#fff"/><path fill-rule="evenodd" clip-rule="evenodd" d="M104.239 58.422c2.736-.412 6.457 2.316 8.309 6.094 1.773 3.617 1.192 6.885-1.262 7.519-3.296-.657-7.049-3.864-9.093-8.031a15.75 15.75 0 01-.546-1.248c-.242-2.308.684-4.046 2.592-4.334z" fill="#333"/><path fill-rule="evenodd" clip-rule="evenodd" d="M71.558 60.87c-2.118.234-4.028 2.235-4.265 4.471-.235 2.236 1.29 3.859 3.41 3.626 2.119-.234 4.028-2.236 4.264-4.471.237-2.237-1.29-3.86-3.409-3.626zM111.659 57.022c-1.711.188-3.228 2.044-3.389 4.144-.161 2.1 1.095 3.65 2.806 3.462 1.711-.189 3.229-2.045 3.389-4.145l.005-.065a17.31 17.31 0 00-2.81-3.396h-.001z" fill="#fff"/><path fill-rule="evenodd" clip-rule="evenodd" d="M90.135 119.478l1.16 7.801c.159 1.072.698 1.102 1.26 1.029l2.701-.347c.97-.123.847-.171.73-1.353-.36-3.599-1.198-7.367-2.164-10.499l-3.687 3.369z" fill="#FF9100"/><path fill-rule="evenodd" clip-rule="evenodd" d="M92.646 120.471c-.575.068-.898.584-.72 1.153.177.569.787.975 1.362.908.576-.068.898-.583.72-1.153-.177-.569-.787-.975-1.362-.908z" fill="#FFB640"/><path fill-rule="evenodd" clip-rule="evenodd" d="M102.774 74.33c.015-.903.17-2.06.686-1.895.681.217 1.017 1.21.913 2.089-.072.605-.353 1.156-.873 1.362-.87.345-.743-.582-.726-1.557zM95.494 77.075c.319.325.558.822.659 1.368.034-.757.259-1.34.67-1.567l-1.329.2z" fill="#333"/><path fill-rule="evenodd" clip-rule="evenodd" d="M69.649 70.036c-.684.076-1.301.722-1.378 1.445-.076.722.417 1.246 1.102 1.17.684-.075 1.3-.721 1.377-1.443.076-.723-.417-1.247-1.101-1.172zM111.081 65.293c-.514.056-.979.543-1.036 1.086-.057.543.314.937.828.88.515-.056.979-.543 1.036-1.086.058-.543-.314-.937-.828-.88z" fill="#fff"/><path fill-rule="evenodd" clip-rule="evenodd" d="M63.02 47.802c-1.564.62-3.186 1.803-4.08 3.103-.894 1.3-1.06 2.718-.793 3.27.266.553.965.24 1.874-.213.909-.454 2.028-1.049 3.338-1.552 1.31-.504 2.813-.917 3.605-1.492.792-.575.873-1.31.86-1.98-.012-.668-.12-1.269-.927-1.54-.807-.273-2.313-.216-3.877.404zM96.833 45.31c-1.179.635-1.66 2.173-1.04 2.83.62.655 2.343.43 3.786.72 1.443.287 2.609 1.09 3.409 1.35.8.262 1.234-.018.97-.944-.265-.925-1.228-2.495-2.649-3.412-1.42-.917-3.297-1.181-4.476-.545z" fill="#333"/><path fill-rule="evenodd" clip-rule="evenodd" d="M111.498 106.895c3.744-1.253 5.866-1.691 7.191-4.11.621-1.135 1.406-1.473 2.457-1.324 1.822.259 2.905 2.077 1.065 4.081.193.05.018-.003.231.062 1.29.369 2.828.891 3.94 1.688.789.565 1.659 1.598 1.18 2.74 1.293 1.341 2.237 3.762-.266 4.21-.188 1.624-1.07 2.378-2.951 1.758-2.566-2.474-4.533-2.887-7.846-2.34l-5.001-6.765z" fill="#90D3FF"/><path fill-rule="evenodd" clip-rule="evenodd" d="M121.378 107.268c.191 1.383.575 2.184 1.216 2.951 1.619 1.937 2.093.93 1.982-.338-.12-1.367-.909-2.8-2.989-3.203-.194-.037-.303.168-.209.59z" fill="#fff"/><path fill-rule="evenodd" clip-rule="evenodd" d="M127.541 110.018c-.738-.798-1.492-1.328-2.019-1.535-.295-.116-.461-.162-.461-.162s.259-.282.84-.077c.648.228 1.504.926 1.64 1.774zM125.133 111.302s.357.091.687.335c.356.263 1.018.795 1.39 1.948a2.248 2.248 0 00-1.137-2.364c-.231-.126-.775-.272-.94.081z" fill="#0F99F5"/></svg>

<svg width="150" height="150" viewBox="0 0 150 150" fill="none" xmlns="http://www.w3.org/2000/svg">
<path fill-rule="evenodd" clip-rule="evenodd" d="M75.328 132.656C106.697 132.656 132.281 107.072 132.281 75.703C132.281 44.334 106.697 18.75 75.328 18.75C43.959 18.75 18.375 44.334 18.375 75.703C18.375 107.072 43.959 132.656 75.328 132.656Z" fill="#202335"/>
<path fill-rule="evenodd" clip-rule="evenodd" d="M103.095 108.753C106.56 108.078 109.995 107.358 113.25 106.368C121.702 104.768 121.232 111.978 117.642 113.391C110.412 116.237 104.835 120.576 99.809 125.381L103.095 108.753Z" fill="#90D3FF"/>
<path fill-rule="evenodd" clip-rule="evenodd" d="M97.164 109.593L104.695 107.92C109.197 112.991 110.462 116.364 109.592 118.929C106.465 120.945 103.277 123.73 100.633 126.321L95.383 115.535L97.164 109.593Z" fill="#FFB640"/>
<path fill-rule="evenodd" clip-rule="evenodd" d="M101.279 108.79L103.569 108.03C107.351 112.88 108.974 116.978 108.469 120.095L106.444 121.475C107.051 117.711 105.256 113.427 101.279 108.79Z" fill="#FFE1A5"/>
<path fill-rule="evenodd" clip-rule="evenodd" d="M89.139 49.815C86.897 27.393 60.494 19.313 41.224 20.521C28.247 21.334 24.237 28.841 41.364 43.505L59.806 59.506L89.139 49.816V49.815Z" fill="#C7E9FF"/>
<path fill-rule="evenodd" clip-rule="evenodd" d="M78.376 43.874C65.97 44.821 56.616 47.278 51.268 48.488C30.532 53.178 -1.04801 66.72 0.693989 74.136C4.27599 89.293 45.657 101.977 60.958 73.136L78.376 43.874Z" fill="#90D3FF"/>
<path fill-rule="evenodd" clip-rule="evenodd" d="M48.224 62.544C38.447 72.165 30.103 70.306 22.237 70.518C18.048 70.631 14.192 71.128 12.009 72.509C4.98 76.959 16.432 82.325 23.009 84.009C50.697 91.099 42.459 70.687 48.224 62.544Z" fill="#C7E9FF"/>
<path fill-rule="evenodd" clip-rule="evenodd" d="M96.659 107.831C97.226 120.229 89.391 122.712 78.251 114.392L73.151 110.881C74.155 108.096 74.925 106.294 76.486 104.598L87.52 101.787C87.616 101.835 87.713 101.886 87.81 101.94C91.23 103.829 94.591 104.558 96.659 107.831Z" fill="#90D3FF"/>
<path fill-rule="evenodd" clip-rule="evenodd" d="M96.389 105.623C99.452 108.661 104.469 116.308 105.742 123.863C96.942 129.432 86.512 132.656 75.328 132.656C73.498 132.656 71.688 132.569 69.903 132.401C72.154 123.227 70.58 117.726 67.031 110.811L73.78 110.835L91.609 118.256L93.496 114.022L95.086 108.544L96.389 105.623Z" fill="#FFB640"/>
<path fill-rule="evenodd" clip-rule="evenodd" d="M47.445 117.492L50.202 109.114C56.907 110.213 63.786 110.843 70.802 111.109L72.751 125.487L47.445 117.492Z" fill="#90D3FF"/>
<path fill-rule="evenodd" clip-rule="evenodd" d="M74.397 129.37C74.629 127.681 73.103 126.302 68.692 125.172L58.166 121.775C59.483 118.755 60.13 114.399 59.209 110.307L71.159 110.987C71.28 110.984 77.921 121.084 74.397 129.37Z" fill="#FFB640"/>
<path fill-rule="evenodd" clip-rule="evenodd" d="M62.562 123.003C61.7892 122.819 61.0254 122.6 60.273 122.345C61.569 119.67 61.988 115.43 61.023 110.653L63.387 110.697C64.327 115.784 64.137 120.468 62.562 123.003Z" fill="#FFE1A5"/>
<path fill-rule="evenodd" clip-rule="evenodd" d="M53.625 109.751C49.309 108.856 48.048 108.607 44.412 107.286L42.643 105.717C42.143 105.217 41.368 104.872 40.251 105.258C38.143 105.987 37.636 108.824 39.421 109.966C39.892 110.181 40.423 110.786 39.548 111.699C38.927 112.346 38.205 112.811 37.556 113.442C35.521 115.422 34.286 117.188 36.246 119.583C35.753 121.991 37.134 125.215 40.631 123.112C41.769 124.687 43.613 124.541 44.884 123.148C45.4006 122.572 45.8338 121.926 46.171 121.23C47.211 119.057 48.126 117.966 49.548 117.378L52.501 117.084L53.625 109.751Z" fill="#90D3FF"/>
<path fill-rule="evenodd" clip-rule="evenodd" d="M41.517 119.394C41.111 120.106 40.864 120.847 40.687 122.689C39.978 121.027 40.4 119.821 40.92 119.122C41.387 118.494 42.21 118.545 42.21 118.545C42.21 118.545 41.83 118.847 41.517 119.394ZM36.496 119.27C37.144 118.002 37.456 117.568 38.413 116.514C37.177 116.919 36.224 117.985 36.496 119.27Z" fill="#0F99F5"/>
<path fill-rule="evenodd" clip-rule="evenodd" d="M41.67 117.031C43.567 118.249 45.087 115.73 44.715 113.993C44.432 112.666 43.442 111.439 42.318 111.743C40.194 112.318 39.239 115.47 41.67 117.031Z" fill="white"/>
<path fill-rule="evenodd" clip-rule="evenodd" d="M72.574 109.586C71.506 116.728 78.868 121.076 81.284 121.996C82.031 120.069 82.986 117.808 84.871 116.474L91.971 118.939L92.483 118.216C88.273 116.545 85.013 113.467 82.118 110.326C80.273 109.766 74.708 109.422 72.574 109.586Z" fill="#FF9100"/>
<path fill-rule="evenodd" clip-rule="evenodd" d="M98.368 113.477C100.001 114.427 101.214 115.123 103.119 117.39C102.371 114.413 101.622 109.648 97.292 107.085L94.054 108.174C94.427 112.929 92.559 115.852 90.123 119.602L98.368 113.477Z" fill="#FF9100"/>
<path fill-rule="evenodd" clip-rule="evenodd" d="M44.57 97.9C52.73 109.825 72.302 112.328 86.558 111.644C101.28 110.939 114.331 104.893 122.522 92.395C133.381 75.829 117.465 53.68 100.074 46.9C84.344 40.766 67.773 43.27 55.286 51.129C40.308 60.555 32.794 80.689 44.569 97.899L44.57 97.9Z" fill="#90D3FF"/>
<path fill-rule="evenodd" clip-rule="evenodd" d="M55.52 106.69C64.897 111.094 76.931 112.103 86.558 111.644C101.28 110.941 114.27 105.101 122.567 92.673C125.699 87.981 126.213 78.658 122.186 76.184C115.613 72.148 108.844 73.93 100.254 75.262C92.438 76.474 83.972 75.953 75.318 75.772C65.799 75.572 55.925 79.11 52.032 81.636C48.139 84.163 46.255 88.376 45.562 90.385C43.304 96.934 50.065 104.128 55.52 106.69Z" fill="#C7E9FF"/>
<path fill-rule="evenodd" clip-rule="evenodd" d="M80.219 69.074C82.303 67.077 85.659 65.859 88.487 65.167C91.315 64.475 93.614 64.311 95.738 64.459C97.863 64.607 99.813 65.069 101.248 65.833C102.683 66.597 103.605 67.663 104.224 69.079C104.843 70.494 105.162 72.261 105.173 73.538C105.185 74.815 104.89 75.601 104.337 76.741C103.785 77.88 102.973 79.371 100.943 80.486C98.913 81.599 95.665 82.334 92.075 82.306C88.484 82.276 84.55 81.486 81.899 80.411C79.247 79.336 77.879 77.979 77.599 75.913C77.321 73.847 78.135 71.07 80.219 69.073V69.074Z" fill="white"/>
<path fill-rule="evenodd" clip-rule="evenodd" d="M78.86 78.517L101.616 74.782C102.189 74.687 103.924 74.864 104.489 74.402C102.51 78.242 97.287 82.855 98.118 93.392C100.013 99.506 93.519 101.667 89.82 98.052C85.984 94.303 88.776 86.889 78.86 78.517Z" fill="white"/>
<path fill-rule="evenodd" clip-rule="evenodd" d="M90.166 67.798C89.751 68.22 89.704 68.508 90.236 68.909C90.766 69.31 91.874 69.824 92.856 70.293C93.838 70.763 94.693 71.186 95.293 71.297C95.893 71.407 96.239 71.205 96.734 70.62C97.229 70.035 97.874 69.069 98.251 68.426C98.629 67.784 98.741 67.466 98.656 67.168C98.57 66.871 98.286 66.596 97.701 66.366C97.116 66.136 96.231 65.951 95.254 65.941C94.279 65.931 93.214 66.095 92.29 66.456C91.366 66.817 90.581 67.375 90.166 67.798Z" fill="#FF8797"/>
<path fill-rule="evenodd" clip-rule="evenodd" d="M85.18 77.18C85.702 76.176 87.538 74.858 86.549 74.56C85.155 74.14 83.02 74.99 82.642 76.486C82.516 76.99 82.456 78.141 83.13 78.638C84.283 79.486 84.614 78.264 85.18 77.179V77.18Z" fill="#333333"/>
<path fill-rule="evenodd" clip-rule="evenodd" d="M84.978 76.57C89.086 76.645 96.509 77.357 101.617 74.782C102.132 74.522 103.387 73.792 103.952 73.332C103.744 74.572 101.454 76.344 100.339 77.082C98.095 83.768 97.891 87.872 97.197 93.422C96.503 98.974 91.377 97.819 89.63 94.397C86.73 88.719 84.991 76.617 84.979 76.57H84.978Z" fill="#333333"/>
<path fill-rule="evenodd" clip-rule="evenodd" d="M91.184 77.481C91.319 80.103 93.26 81.099 95.813 80.7C98.334 80.305 99.656 79.171 99.853 76.31C97.031 77.096 94.132 77.436 91.183 77.481H91.184Z" fill="white"/>
<path fill-rule="evenodd" clip-rule="evenodd" d="M66.67 55.977C60.719 56.632 55.356 62.255 54.693 68.534C54.029 74.814 58.315 79.373 64.266 78.717C70.217 78.061 75.58 72.439 76.244 66.159C76.908 59.879 72.621 55.321 66.67 55.977Z" fill="white"/>
<path fill-rule="evenodd" clip-rule="evenodd" d="M64.562 62.226C60 62.728 56.358 66.986 56.429 71.736C56.469 74.391 57.659 76.637 59.497 78.015C60.883 78.647 62.501 78.911 64.267 78.716C66.772 78.44 69.174 77.283 71.165 75.566C72.309 73.956 72.981 71.982 72.951 69.916C72.88 65.166 69.124 61.722 64.561 62.226H64.562Z" fill="#333333"/>
<path fill-rule="evenodd" clip-rule="evenodd" d="M104.322 53.919C107.959 53.371 112.904 56.998 115.366 62.019C117.828 67.041 116.875 71.557 113.238 72.104C109.6 72.652 104.656 69.026 102.194 64.004C99.732 58.982 100.684 54.467 104.322 53.919Z" fill="white"/>
<path fill-rule="evenodd" clip-rule="evenodd" d="M104.239 58.422C106.975 58.01 110.696 60.738 112.548 64.516C114.321 68.133 113.74 71.401 111.286 72.035C107.99 71.378 104.237 68.171 102.193 64.004C101.993 63.5961 101.811 63.1797 101.647 62.756C101.405 60.448 102.331 58.71 104.239 58.422Z" fill="#333333"/>
<path fill-rule="evenodd" clip-rule="evenodd" d="M71.558 60.87C69.44 61.104 67.53 63.105 67.293 65.341C67.058 67.577 68.583 69.2 70.703 68.967C72.822 68.733 74.731 66.731 74.967 64.496C75.204 62.259 73.677 60.636 71.558 60.87ZM111.659 57.022C109.948 57.21 108.431 59.066 108.27 61.166C108.109 63.266 109.365 64.816 111.076 64.628C112.787 64.439 114.305 62.583 114.465 60.483L114.47 60.418C113.682 59.1709 112.738 58.0296 111.66 57.022H111.659Z" fill="white"/>
<path fill-rule="evenodd" clip-rule="evenodd" d="M90.135 119.478L91.295 127.279C91.454 128.351 91.993 128.381 92.555 128.308L95.256 127.961C96.226 127.838 96.103 127.79 95.986 126.608C95.626 123.009 94.788 119.241 93.822 116.109L90.135 119.478Z" fill="#FF9100"/>
<path fill-rule="evenodd" clip-rule="evenodd" d="M92.646 120.471C92.071 120.539 91.748 121.055 91.926 121.624C92.103 122.193 92.713 122.599 93.288 122.532C93.864 122.464 94.186 121.949 94.008 121.379C93.831 120.81 93.221 120.404 92.646 120.471Z" fill="#FFB640"/>
<path fill-rule="evenodd" clip-rule="evenodd" d="M102.774 74.33C102.789 73.427 102.944 72.27 103.46 72.435C104.141 72.652 104.477 73.645 104.373 74.524C104.301 75.129 104.02 75.68 103.5 75.886C102.63 76.231 102.757 75.304 102.774 74.329V74.33ZM95.494 77.075C95.813 77.4 96.052 77.897 96.153 78.443C96.187 77.686 96.412 77.103 96.823 76.876L95.494 77.076V77.075Z" fill="#333333"/>
<path fill-rule="evenodd" clip-rule="evenodd" d="M69.649 70.036C68.965 70.112 68.348 70.758 68.271 71.481C68.195 72.203 68.688 72.727 69.373 72.651C70.057 72.576 70.673 71.93 70.75 71.208C70.826 70.485 70.333 69.961 69.649 70.036ZM111.081 65.293C110.567 65.349 110.102 65.836 110.045 66.379C109.988 66.922 110.359 67.316 110.873 67.259C111.388 67.203 111.852 66.716 111.909 66.173C111.967 65.63 111.595 65.236 111.081 65.293Z" fill="white"/>
<path fill-rule="evenodd" clip-rule="evenodd" d="M63.02 47.802C61.456 48.422 59.834 49.605 58.94 50.905C58.046 52.205 57.88 53.623 58.147 54.175C58.413 54.728 59.112 54.415 60.021 53.962C60.93 53.508 62.049 52.913 63.359 52.41C64.669 51.906 66.172 51.493 66.964 50.918C67.756 50.343 67.837 49.608 67.824 48.938C67.812 48.27 67.704 47.669 66.897 47.398C66.09 47.125 64.584 47.182 63.02 47.802ZM96.833 45.31C95.654 45.945 95.173 47.483 95.793 48.14C96.413 48.795 98.136 48.57 99.579 48.86C101.022 49.147 102.188 49.95 102.988 50.21C103.788 50.472 104.222 50.192 103.958 49.266C103.693 48.341 102.73 46.771 101.309 45.854C99.889 44.937 98.012 44.673 96.833 45.309V45.31Z" fill="#333333"/>
<path fill-rule="evenodd" clip-rule="evenodd" d="M111.498 106.895C115.242 105.642 117.364 105.204 118.689 102.785C119.31 101.65 120.095 101.312 121.146 101.461C122.968 101.72 124.051 103.538 122.211 105.542C122.404 105.592 122.229 105.539 122.442 105.604C123.732 105.973 125.27 106.495 126.382 107.292C127.171 107.857 128.041 108.89 127.562 110.032C128.855 111.373 129.799 113.794 127.296 114.242C127.108 115.866 126.226 116.62 124.345 116C121.779 113.526 119.812 113.113 116.499 113.66L111.498 106.895Z" fill="#90D3FF"/>
<path fill-rule="evenodd" clip-rule="evenodd" d="M121.378 107.268C121.569 108.651 121.953 109.452 122.594 110.219C124.213 112.156 124.687 111.149 124.576 109.881C124.456 108.514 123.667 107.081 121.587 106.678C121.393 106.641 121.284 106.846 121.378 107.268Z" fill="white"/>
<path fill-rule="evenodd" clip-rule="evenodd" d="M127.541 110.018C126.803 109.22 126.049 108.69 125.522 108.483C125.227 108.367 125.061 108.321 125.061 108.321C125.061 108.321 125.32 108.039 125.901 108.244C126.549 108.472 127.405 109.17 127.541 110.018ZM125.133 111.302C125.133 111.302 125.49 111.393 125.82 111.637C126.176 111.9 126.838 112.432 127.21 113.585C127.292 113.122 127.226 112.644 127.022 112.22C126.818 111.796 126.486 111.446 126.073 111.221C125.842 111.095 125.298 110.949 125.133 111.302Z" fill="#0F99F5"/>
</svg>
